Newaita-dark/.places-retrowave/256/folder-locked.svg

<?xml version="1.0" encoding="UTF-8"?>
<svg xmlns="http://www.w3.org/2000/svg" xmlns:xlink="http://www.w3.org/1999/xlink" width="256pt" height="256pt" viewBox="0 0 256 256" version="1.1">
<defs>
<linearGradient id="linear0" gradientUnits="userSpaceOnUse" x1="254" y1="233.5" x2="254" y2="254.666672" gradientTransform="matrix(0.500048,0,0,0.500048,-0.0000305205,107.510281)">
<stop offset="0" style="stop-color:rgb(0%,0%,0%);stop-opacity:0.27451;"/>
<stop offset="1" style="stop-color:rgb(0%,0%,0%);stop-opacity:0;"/>
</linearGradient>
<radialGradient id="radial0" gradientUnits="userSpaceOnUse" cx="450.908936" cy="189.579361" fx="450.908936" fy="189.579361" r="21.166656" gradientTransform="matrix(0.00000139336,-0.62506,-1.125108,-0.000000812309,432.921701,508.762661)">
<stop offset="0" style="stop-color:rgb(0%,0%,0%);stop-opacity:0.313725;"/>
<stop offset="0.222222" style="stop-color:rgb(0%,0%,0%);stop-opacity:0.27451;"/>
<stop offset="1" style="stop-color:rgb(0%,0%,0%);stop-opacity:0;"/>
</radialGradient>
<radialGradient id="radial1" gradientUnits="userSpaceOnUse" cx="450.908936" cy="189.579361" fx="450.908936" fy="189.579361" r="21.166656" gradientTransform="matrix(-0.00000139336,0.62506,1.125108,0.000000812309,-178.897423,-60.219831)">
<stop offset="0" style="stop-color:rgb(0%,0%,0%);stop-opacity:0.313725;"/>
<stop offset="0.222222" style="stop-color:rgb(0%,0%,0%);stop-opacity:0.27451;"/>
<stop offset="1" style="stop-color:rgb(0%,0%,0%);stop-opacity:0;"/>
</radialGradient>
<radialGradient id="radial2" gradientUnits="userSpaceOnUse" cx="450.908936" cy="189.579361" fx="450.908936" fy="189.579361" r="21.166656" gradientTransform="matrix(-0.00000139336,-0.62506,1.125108,-0.000000812309,-178.897423,508.762661)">
<stop offset="0" style="stop-color:rgb(0%,0%,0%);stop-opacity:0.313725;"/>
<stop offset="0.222222" style="stop-color:rgb(0%,0%,0%);stop-opacity:0.27451;"/>
<stop offset="1" style="stop-color:rgb(0%,0%,0%);stop-opacity:0;"/>
</radialGradient>
<radialGradient id="radial3" gradientUnits="userSpaceOnUse" cx="450.908936" cy="189.579361" fx="450.908936" fy="189.579361" r="21.166656" gradientTransform="matrix(0.00000139336,0.62506,-1.125108,0.000000812309,432.921686,-60.219835)">
<stop offset="0" style="stop-color:rgb(0%,0%,0%);stop-opacity:0.313725;"/>
<stop offset="0.222222" style="stop-color:rgb(0%,0%,0%);stop-opacity:0.27451;"/>
<stop offset="1" style="stop-color:rgb(0%,0%,0%);stop-opacity:0;"/>
</radialGradient>
<linearGradient id="linear1" gradientUnits="userSpaceOnUse" x1="359.833344" y1="-147.5" x2="359.833344" y2="-62.833332" gradientTransform="matrix(0.500048,0,0,0.500048,0,107.510266)">
<stop offset="0" style="stop-color:rgb(39.215686%,70.980392%,96.470588%);stop-opacity:1;"/>
<stop offset="1" style="stop-color:rgb(73.333333%,87.058824%,98.431373%);stop-opacity:1;"/>
</linearGradient>
<linearGradient id="linear2" gradientUnits="userSpaceOnUse" x1="254" y1="-105.166656" x2="254" y2="95.916672" gradientTransform="matrix(0.500048,0,0,0.500048,0,107.510263)">
<stop offset="0" style="stop-color:rgb(39.215686%,70.980392%,96.470588%);stop-opacity:1;"/>
<stop offset="1" style="stop-color:rgb(98.823529%,89.411765%,92.54902%);stop-opacity:1;"/>
</linearGradient>
<linearGradient id="linear3" gradientUnits="userSpaceOnUse" x1="880" y1="1695.118164" x2="880" y2="1095.118164" gradientTransform="matrix(0.132304,0,0,0.132304,0,0)">
<stop offset="0" style="stop-color:rgb(14.901961%,19.607843%,21.960784%);stop-opacity:1;"/>
<stop offset="0.666667" style="stop-color:rgb(27.058824%,35.294118%,39.215686%);stop-opacity:1;"/>
<stop offset="1" style="stop-color:rgb(38.039216%,38.039216%,38.039216%);stop-opacity:1;"/>
</linearGradient>
<linearGradient id="linear4" gradientUnits="userSpaceOnUse" x1="960" y1="1415.118164" x2="960" y2="775.118103" gradientTransform="matrix(0.264583,0,0,0.264583,0.00000966667,-214.999756)">
<stop offset="0" style="stop-color:rgb(69.019608%,74.509804%,77.254902%);stop-opacity:1;"/>
<stop offset="0.375" style="stop-color:rgb(77.254902%,79.215686%,91.372549%);stop-opacity:1;"/>
<stop offset="1" style="stop-color:rgb(32.941176%,43.137255%,47.843137%);stop-opacity:1;"/>
</linearGradient>
</defs>
<g id="surface1">
<path style=" stroke:none;fill-rule:nonzero;fill:url(#linear0);" d="M 31.753906 224.269531 L 222.269531 224.269531 L 222.269531 234.855469 L 31.753906 234.855469 Z M 31.753906 224.269531 "/>
<path style=" stroke:none;fill-rule:nonzero;fill:url(#radial0);" d="M 222.269531 224.269531 L 243.441406 224.269531 L 243.441406 213.6875 L 222.269531 213.6875 Z M 222.269531 224.269531 "/>
<path style=" stroke:none;fill-rule:nonzero;fill:url(#radial1);" d="M 31.753906 224.269531 L 10.585938 224.269531 L 10.585938 234.855469 L 31.753906 234.855469 Z M 31.753906 224.269531 "/>
<path style=" stroke:none;fill-rule:nonzero;fill:url(#radial2);" d="M 31.753906 224.269531 L 10.585938 224.269531 L 10.585938 213.6875 L 31.753906 213.6875 Z M 31.753906 224.269531 "/>
<path style=" stroke:none;fill-rule:nonzero;fill:url(#radial3);" d="M 222.269531 224.269531 L 243.441406 224.269531 L 243.441406 234.855469 L 222.269531 234.855469 Z M 222.269531 224.269531 "/>
<path style=" stroke:none;fill-rule:nonzero;fill:url(#linear1);" d="M 58.214844 33.753906 L 230.210938 33.753906 C 236.054688 33.753906 240.792969 38.492188 240.792969 44.335938 L 240.792969 84.027344 C 240.792969 89.875 236.054688 94.613281 230.210938 94.613281 L 58.214844 94.613281 C 52.367188 94.613281 47.628906 89.875 47.628906 84.027344 L 47.628906 44.335938 C 47.628906 38.492188 52.367188 33.753906 58.214844 33.753906 Z M 58.214844 33.753906 "/>
<path style=" stroke:none;fill-rule:nonzero;fill:rgb(90.196079%,90.196079%,90.196079%);fill-opacity:0.588235;" d="M 58.214844 33.753906 C 52.351562 33.753906 47.628906 38.472656 47.628906 44.335938 L 47.628906 45.660156 C 47.628906 39.796875 52.351562 35.074219 58.214844 35.074219 L 230.210938 35.074219 C 236.074219 35.074219 240.792969 39.796875 240.792969 45.660156 L 240.792969 44.335938 C 240.792969 38.472656 236.074219 33.753906 230.210938 33.753906 Z M 58.214844 33.753906 "/>
<path style=" stroke:none;fill-rule:nonzero;fill:rgb(12.941177%,12.941177%,12.941177%);fill-opacity:1;" d="M 58.214844 33.003906 C 51.949219 33.003906 46.878906 38.070312 46.878906 44.335938 L 46.878906 84.027344 C 46.878906 90.292969 51.949219 95.363281 58.214844 95.363281 L 230.210938 95.363281 C 236.476562 95.363281 241.542969 90.292969 241.542969 84.027344 L 241.542969 44.335938 C 241.542969 38.070312 236.476562 33.003906 230.210938 33.003906 Z M 58.214844 34.503906 L 230.210938 34.503906 C 235.671875 34.503906 240.042969 38.875 240.042969 44.335938 L 240.042969 84.027344 C 240.042969 89.488281 235.671875 93.863281 230.210938 93.863281 L 58.214844 93.863281 C 52.753906 93.863281 48.378906 89.488281 48.378906 84.027344 L 48.378906 44.335938 C 48.378906 38.875 52.753906 34.503906 58.214844 34.503906 Z M 58.214844 34.503906 "/>
<path style=" stroke:none;fill-rule:nonzero;fill:url(#linear2);" d="M 21.167969 54.921875 C 15.304688 54.921875 10.585938 59.640625 10.585938 65.507812 L 10.585938 213.6875 C 10.585938 219.550781 15.304688 224.269531 21.167969 224.269531 L 232.855469 224.269531 C 238.71875 224.269531 243.441406 219.550781 243.441406 213.6875 L 243.441406 81.382812 L 100.550781 81.382812 C 94.6875 81.382812 89.96875 76.664062 89.96875 70.796875 L 89.96875 54.921875 Z M 21.167969 54.921875 "/>
<path style=" stroke:none;fill-rule:nonzero;fill:url(#linear3);" d="M 10.585938 144.890625 L 10.585938 213.6875 C 10.585938 219.550781 15.304688 224.269531 21.167969 224.269531 L 232.855469 224.269531 C 238.71875 224.269531 243.441406 219.550781 243.441406 213.6875 L 243.441406 144.890625 C 234.496094 145.777344 232.855469 150.179688 214.332031 144.890625 C 209.703125 142.902344 197.792969 143.566406 185.226562 144.890625 C 174.640625 144.890625 164.058594 139.597656 156.117188 144.890625 C 153.472656 146.210938 148.441406 146.652344 141.941406 146.625 C 124.367188 150.179688 108.488281 150.179688 92.75 144.144531 C 84.675781 142.242188 75.789062 144.007812 68.796875 144.890625 C 50.277344 147.535156 47.628906 150.179688 39.691406 144.890625 C 31.753906 142.242188 23.816406 147.535156 10.585938 144.890625 Z M 10.585938 144.890625 "/>
<path style=" stroke:none;fill-rule:nonzero;fill:rgb(0%,0%,0%);fill-opacity:0.196078;" d="M 21.167969 224.269531 C 15.304688 224.269531 10.585938 219.550781 10.585938 213.6875 L 10.585938 212.363281 C 10.585938 218.226562 15.304688 222.949219 21.167969 222.949219 L 232.855469 222.949219 C 238.71875 222.949219 243.441406 218.226562 243.441406 212.363281 L 243.441406 213.6875 C 243.441406 219.550781 238.71875 224.269531 232.855469 224.269531 Z M 21.167969 224.269531 "/>
<path style=" stroke:none;fill-rule:nonzero;fill:rgb(90.196079%,90.196079%,90.196079%);fill-opacity:0.937255;" d="M 21.167969 54.921875 C 15.304688 54.921875 10.585938 59.640625 10.585938 65.507812 L 10.585938 66.828125 C 10.585938 60.964844 15.304688 56.246094 21.167969 56.246094 L 89.96875 56.246094 L 89.96875 54.921875 Z M 21.167969 54.921875 "/>
<path style=" stroke:none;fill-rule:nonzero;fill:rgb(90.196079%,90.196079%,90.196079%);fill-opacity:0.937255;" d="M 99.890625 82.042969 C 94.027344 82.042969 89.304688 77.324219 89.304688 71.460938 L 89.304688 70.136719 C 89.304688 76 94.027344 80.734375 99.890625 80.722656 L 243.441406 80.722656 L 243.441406 82.042969 Z M 99.890625 82.042969 "/>
<path style=" stroke:none;fill-rule:nonzero;fill:rgb(12.941177%,12.941177%,12.941177%);fill-opacity:1;" d="M 21.167969 54.171875 C 14.902344 54.171875 9.835938 59.238281 9.835938 65.507812 L 9.835938 213.6875 C 9.835938 219.953125 14.902344 225.019531 21.167969 225.019531 L 232.855469 225.019531 C 239.121094 225.019531 244.191406 219.953125 244.191406 213.6875 L 244.191406 79.882812 L 100.550781 79.882812 C 95.089844 79.882812 90.71875 75.507812 90.71875 70.046875 L 90.71875 54.171875 Z M 21.167969 55.671875 L 89.214844 55.671875 L 89.214844 70.046875 C 89.214844 76.316406 94.285156 81.382812 100.550781 81.382812 L 242.691406 81.382812 L 242.691406 213.6875 C 242.691406 219.148438 238.316406 223.519531 232.855469 223.519531 L 21.167969 223.519531 C 15.707031 223.519531 11.335938 219.148438 11.335938 213.6875 L 11.335938 65.507812 C 11.335938 60.046875 15.707031 55.671875 21.167969 55.671875 Z M 21.167969 55.671875 "/>
<path style="fill-rule:nonzero;fill:url(#linear4);stroke-width:3;stroke-linecap:round;stroke-linejoin:miter;stroke:rgb(12.941177%,12.941177%,12.941177%);stroke-opacity:1;stroke-miterlimit:4;" d="M 211.667287 -9.918022 C 205.80066 -9.918022 201.08236 -5.199722 201.08236 0.666905 L 201.08236 74.75358 L 190.497433 74.75358 C 184.638618 74.75358 179.920318 79.471879 179.920318 85.330695 L 179.920318 148.832443 C 179.920318 154.699071 184.638618 159.41737 190.497433 159.41737 L 317.50093 159.41737 C 323.359746 159.41737 328.085857 154.699071 328.085857 148.832443 L 328.085857 85.330695 C 328.085857 79.471879 323.359746 74.75358 317.50093 74.75358 L 306.916003 74.75358 L 306.916003 0.666905 C 306.916003 -5.199722 302.197704 -9.918022 296.331077 -9.918022 Z M 227.540771 11.251832 L 280.457593 11.251832 C 283.387 11.251832 285.74615 13.610981 285.74615 16.540389 L 285.74615 74.75358 L 222.252213 74.75358 L 222.252213 16.540389 C 222.252213 13.610981 224.611363 11.251832 227.540771 11.251832 Z M 253.999182 90.627064 C 254.186664 90.627064 254.366334 90.627064 254.546005 90.642688 C 263.084252 90.923911 269.872666 97.891995 269.872666 106.500548 C 269.872666 111.218848 267.833798 115.445007 264.584108 118.350979 L 264.584108 132.958959 C 264.584108 138.817775 259.865809 143.543886 253.999182 143.543886 C 248.140366 143.543886 243.414255 138.817775 243.414255 132.958959 L 243.414255 118.350979 C 240.164565 115.445007 238.125698 111.218848 238.125698 106.500548 C 238.125698 97.891995 244.914112 90.923911 253.452359 90.642688 C 253.632029 90.627064 253.819511 90.627064 253.999182 90.627064 Z M 253.999182 90.627064 " transform="matrix(0.500048,0,0,0.500048,0,107.510266)"/>
<path style=" stroke:none;fill-rule:nonzero;fill:rgb(25.882354%,25.882354%,25.882354%);fill-opacity:0.313725;" d="M 156.117188 144.890625 C 153.472656 146.210938 148.441406 146.652344 141.941406 146.625 C 125.140625 150.023438 109.894531 150.171875 94.835938 144.90625 C 92.101562 145.121094 89.96875 147.390625 89.96875 150.179688 L 89.96875 181.933594 C 89.96875 184.867188 92.328125 187.226562 95.257812 187.226562 L 158.765625 187.226562 C 161.695312 187.226562 164.058594 184.867188 164.058594 181.933594 L 164.058594 150.179688 C 164.058594 147.25 161.695312 144.890625 158.765625 144.890625 Z M 127.011719 152.828125 C 127.105469 152.828125 127.195312 152.828125 127.285156 152.835938 C 131.554688 152.976562 134.949219 156.460938 134.949219 160.765625 C 134.949219 163.125 133.929688 165.238281 132.304688 166.691406 L 132.304688 173.996094 C 132.304688 176.929688 129.945312 179.289062 127.011719 179.289062 C 124.082031 179.289062 121.71875 176.929688 121.71875 173.996094 L 121.71875 166.691406 C 120.09375 165.238281 119.074219 163.125 119.074219 160.765625 C 119.074219 156.460938 122.46875 152.976562 126.738281 152.835938 C 126.828125 152.828125 126.921875 152.828125 127.011719 152.828125 Z M 127.011719 152.828125 "/>
</g>
</svg>

<svg xmlns="http://www.w3.org/2000/svg" width="256pt" height="256pt" viewBox="0 0 256 256"><defs><linearGradient id="a" gradientUnits="userSpaceOnUse" x1="254" y1="233.5" x2="254" y2="254.667" gradientTransform="matrix(.50005 0 0 .50005 0 107.51)"><stop offset="0" stop-opacity=".275"/><stop offset="1" stop-opacity="0"/></linearGradient><radialGradient id="b" gradientUnits="userSpaceOnUse" cx="450.909" cy="189.579" fx="450.909" fy="189.579" r="21.167" gradientTransform="matrix(0 -.62506 -1.1251 0 432.922 508.763)"><stop offset="0" stop-opacity=".314"/><stop offset=".222" stop-opacity=".275"/><stop offset="1" stop-opacity="0"/></radialGradient><radialGradient id="c" gradientUnits="userSpaceOnUse" cx="450.909" cy="189.579" fx="450.909" fy="189.579" r="21.167" gradientTransform="matrix(0 .62506 1.1251 0 -178.897 -60.22)"><stop offset="0" stop-opacity=".314"/><stop offset=".222" stop-opacity=".275"/><stop offset="1" stop-opacity="0"/></radialGradient><radialGradient id="d" gradientUnits="userSpaceOnUse" cx="450.909" cy="189.579" fx="450.909" fy="189.579" r="21.167" gradientTransform="matrix(0 -.62506 1.1251 0 -178.897 508.763)"><stop offset="0" stop-opacity=".314"/><stop offset=".222" stop-opacity=".275"/><stop offset="1" stop-opacity="0"/></radialGradient><radialGradient id="e" gradientUnits="userSpaceOnUse" cx="450.909" cy="189.579" fx="450.909" fy="189.579" r="21.167" gradientTransform="matrix(0 .62506 -1.1251 0 432.922 -60.22)"><stop offset="0" stop-opacity=".314"/><stop offset=".222" stop-opacity=".275"/><stop offset="1" stop-opacity="0"/></radialGradient><linearGradient id="f" gradientUnits="userSpaceOnUse" x1="359.833" y1="-147.5" x2="359.833" y2="-62.833" gradientTransform="matrix(.50005 0 0 .50005 0 107.51)"><stop offset="0" stop-color="#64b5f6"/><stop offset="1" stop-color="#bbdefb"/></linearGradient><linearGradient id="g" gradientUnits="userSpaceOnUse" x1="254" y1="-105.167" x2="254" y2="95.917" gradientTransform="matrix(.50005 0 0 .50005 0 107.51)"><stop offset="0" stop-color="#64b5f6"/><stop offset="1" stop-color="#fce4ec"/></linearGradient><linearGradient id="h" gradientUnits="userSpaceOnUse" x1="880" y1="1695.118" x2="880" y2="1095.118" gradientTransform="scale(.1323)"><stop offset="0" stop-color="#263238"/><stop offset=".667" stop-color="#455a64"/><stop offset="1" stop-color="#616161"/></linearGradient><linearGradient id="i" gradientUnits="userSpaceOnUse" x1="960" y1="1415.118" x2="960" y2="775.118" gradientTransform="matrix(.26458 0 0 .26458 0 -215)"><stop offset="0" stop-color="#b0bec5"/><stop offset=".375" stop-color="#c5cae9"/><stop offset="1" stop-color="#546e7a"/></linearGradient></defs><path d="M31.754 224.27H222.27v10.585H31.754zm0 0" fill="url(#a)"/><path d="M222.27 224.27h21.171v-10.583H222.27zm0 0" fill="url(#b)"/><path d="M31.754 224.27H10.586v10.585h21.168zm0 0" fill="url(#c)"/><path d="M31.754 224.27H10.586v-10.583h21.168zm0 0" fill="url(#d)"/><path d="M222.27 224.27h21.171v10.585H222.27zm0 0" fill="url(#e)"/><path d="M58.215 33.754H230.21c5.844 0 10.582 4.738 10.582 10.582v39.691c0 5.848-4.738 10.586-10.582 10.586H58.215c-5.848 0-10.586-4.738-10.586-10.586V44.336c0-5.844 4.738-10.582 10.586-10.582zm0 0" fill="url(#f)"/><path d="M58.215 33.754a10.561 10.561 0 0 0-10.586 10.582v1.324a10.564 10.564 0 0 1 10.586-10.586H230.21a10.561 10.561 0 0 1 10.582 10.586v-1.324a10.558 10.558 0 0 0-10.582-10.582zm0 0" fill="#e6e6e6" fill-opacity=".588"/><path d="M58.215 33.004c-6.266 0-11.336 5.066-11.336 11.332v39.691a11.33 11.33 0 0 0 11.336 11.336H230.21c6.266 0 11.332-5.07 11.332-11.336V44.336a11.323 11.323 0 0 0-11.332-11.332zm0 1.5H230.21a9.793 9.793 0 0 1 9.832 9.832v39.691a9.796 9.796 0 0 1-9.832 9.836H58.215a9.8 9.8 0 0 1-9.836-9.836V44.336a9.796 9.796 0 0 1 9.836-9.832zm0 0" fill="#212121"/><path d="M21.168 54.922a10.559 10.559 0 0 0-10.582 10.586v148.18a10.558 10.558 0 0 0 10.582 10.582h211.687a10.561 10.561 0 0 0 10.586-10.583V81.383h-142.89a10.559 10.559 0 0 1-10.582-10.586V54.922zm0 0" fill="url(#g)"/><path d="M10.586 144.89v68.798a10.558 10.558 0 0 0 10.582 10.582h211.687a10.561 10.561 0 0 0 10.586-10.583v-68.796c-8.945.886-10.586 5.289-29.109 0-4.629-1.989-16.539-1.325-29.105 0-10.586 0-21.168-5.293-29.11 0-2.644 1.32-7.676 1.761-14.176 1.734-17.574 3.555-33.453 3.555-49.191-2.48-8.074-1.903-16.96-.137-23.953.746-18.52 2.644-21.168 5.289-29.106 0-7.937-2.649-15.875 2.644-29.105 0zm0 0" fill="url(#h)"/><path d="M21.168 224.27a10.558 10.558 0 0 1-10.582-10.583v-1.324a10.561 10.561 0 0 0 10.582 10.586h211.687a10.564 10.564 0 0 0 10.586-10.586v1.325a10.561 10.561 0 0 1-10.586 10.582zm0 0" fill-opacity=".196"/><path d="M21.168 54.922a10.559 10.559 0 0 0-10.582 10.586v1.32a10.558 10.558 0 0 1 10.582-10.582h68.8v-1.324zm0 0M99.89 82.043a10.561 10.561 0 0 1-10.585-10.582v-1.324c0 5.863 4.722 10.597 10.586 10.586h143.55v1.32zm0 0" fill="#e6e6e6" fill-opacity=".937"/><path d="M21.168 54.172A11.324 11.324 0 0 0 9.836 65.508v148.18a11.323 11.323 0 0 0 11.332 11.332h211.687c6.266 0 11.336-5.067 11.336-11.333V79.883h-143.64a9.796 9.796 0 0 1-9.832-9.836V54.172zm0 1.5h68.047v14.375c0 6.27 5.07 11.336 11.336 11.336h142.14v132.305a9.796 9.796 0 0 1-9.836 9.832H21.168a9.793 9.793 0 0 1-9.832-9.833V65.507a9.796 9.796 0 0 1 9.832-9.835zm0 0" fill="#212121"/><path d="M211.667-9.918A10.558 10.558 0 0 0 201.082.667v74.087h-10.585A10.555 10.555 0 0 0 179.92 85.33v63.501a10.557 10.557 0 0 0 10.577 10.585h127.004a10.563 10.563 0 0 0 10.585-10.585V85.331A10.562 10.562 0 0 0 317.5 74.754h-10.585V.667a10.558 10.558 0 0 0-10.585-10.585zm15.874 21.17h52.917c2.929 0 5.288 2.359 5.288 5.288v58.214h-63.494V16.54c0-2.929 2.36-5.288 5.289-5.288zm26.458 79.375c.188 0 .367 0 .547.016a15.83 15.83 0 0 1 15.327 15.858c0 4.718-2.04 8.944-5.289 11.85v14.608A10.563 10.563 0 0 1 254 143.544a10.568 10.568 0 0 1-10.585-10.585v-14.608a15.836 15.836 0 0 1-5.288-11.85 15.83 15.83 0 0 1 15.326-15.858c.18-.016.368-.016.547-.016zm0 0" transform="matrix(.50005 0 0 .50005 0 107.51)" fill="url(#i)" stroke-width="3" stroke-linecap="round" stroke="#212121"/><path d="M156.117 144.89c-2.644 1.32-7.676 1.762-14.176 1.735-16.8 3.398-32.046 3.547-47.105-1.719a5.275 5.275 0 0 0-4.867 5.274v31.754a5.279 5.279 0 0 0 5.289 5.293h63.508c2.93 0 5.293-2.36 5.293-5.293V150.18c0-2.93-2.364-5.29-5.293-5.29zm-29.105 7.938c.093 0 .183 0 .273.008a7.916 7.916 0 0 1 7.664 7.93c0 2.359-1.02 4.472-2.644 5.925v7.305a5.28 5.28 0 0 1-5.293 5.293 5.282 5.282 0 0 1-5.293-5.293v-7.305a7.919 7.919 0 0 1-2.645-5.925 7.916 7.916 0 0 1 7.664-7.93c.09-.008.184-.008.274-.008zm0 0" fill="#424242" fill-opacity=".314"/></svg>
